svgs/solid/shower.svg

<svg xmlns="http://www.w3.org/2000/svg" viewBox="0 0 512 512"><!-- Font Awesome Pro 6.0.0-alpha2 by @fontawesome - https://fontawesome.com License - https://fontawesome.com/license (Commercial License) --><path d="M288 384C270.326 384 256 398.326 256 416C256 433.672 270.326 448 288 448S320 433.672 320 416C320 398.326 305.674 384 288 384ZM416 256C398.326 256 384 270.326 384 288C384 305.672 398.326 320 416 320S448 305.672 448 288C448 270.326 433.674 256 416 256ZM480 192C462.326 192 448 206.326 448 224C448 241.672 462.326 256 480 256S512 241.672 512 224C512 206.326 497.674 192 480 192ZM288 320C288 302.326 273.674 288 256 288S224 302.326 224 320C224 337.672 238.326 352 256 352S288 337.672 288 320ZM320 224C302.326 224 288 238.326 288 256C288 273.672 302.326 288 320 288S352 273.672 352 256C352 238.326 337.674 224 320 224ZM384 224C401.674 224 416 209.672 416 192C416 174.326 401.674 160 384 160S352 174.326 352 192C352 209.672 366.326 224 384 224ZM352 320C334.326 320 320 334.326 320 352C320 369.672 334.326 384 352 384S384 369.672 384 352C384 334.326 369.674 320 352 320ZM347.314 91.312L336.004 80.004C329.756 73.756 319.625 73.756 313.377 80.004L306.746 86.635C271.594 60.348 224.937 57.475 187.105 77.855L170.5 61.25C132.195 22.945 63.654 18.326 21.977 71.162C7.027 90.111 0 114.268 0 138.402V464C0 472.836 7.164 480 16 480H48C56.836 480 64 472.836 64 464V131.875C64 112.094 80.094 96 99.875 96C109.313 96 118.563 99.828 125.25 106.5L141.857 123.107C121.477 160.941 124.348 207.596 150.635 242.746L144.004 249.377C137.756 255.625 137.756 265.756 144.004 272.004L155.314 283.313C161.563 289.563 171.693 289.563 177.941 283.313L347.314 113.941C353.562 107.691 353.562 97.562 347.314 91.312Z"/></svg>

<svg xmlns="http://www.w3.org/2000/svg" viewBox="0 0 512 512"><!--! Font Awesome Pro 6.0.0-alpha3 by @fontawesome - https://fontawesome.com License - https://fontawesome.com/license (Commercial License) --><path d="M288 384c-17.67 0-32 14.33-32 32c0 17.67 14.33 32 32 32s32-14.33 32-32C320 398.3 305.7 384 288 384zM416 256c-17.67 0-32 14.33-32 32c0 17.67 14.33 32 32 32s32-14.33 32-32C448 270.3 433.7 256 416 256zM480 192c-17.67 0-32 14.33-32 32c0 17.67 14.33 32 32 32s32-14.33 32-32C512 206.3 497.7 192 480 192zM288 320c0-17.67-14.33-32-32-32s-32 14.33-32 32c0 17.67 14.33 32 32 32S288 337.7 288 320zM320 224c-17.67 0-32 14.33-32 32c0 17.67 14.33 32 32 32s32-14.33 32-32C352 238.3 337.7 224 320 224zM384 224c17.67 0 32-14.33 32-32c0-17.67-14.33-32-32-32s-32 14.33-32 32C352 209.7 366.3 224 384 224zM352 320c-17.67 0-32 14.33-32 32c0 17.67 14.33 32 32 32s32-14.33 32-32C384 334.3 369.7 320 352 320zM347.3 91.31l-11.31-11.31c-6.248-6.248-16.38-6.248-22.63 0l-6.631 6.631c-35.15-26.29-81.81-29.16-119.6-8.779L170.5 61.25C132.2 22.95 63.65 18.33 21.98 71.16C7.027 90.11 0 114.3 0 138.4V464C0 472.8 7.164 480 16 480h32C56.84 480 64 472.8 64 464V131.9c0-19.78 16.09-35.87 35.88-35.87c9.438 0 18.69 3.828 25.38 10.5l16.61 16.61C121.5 160.9 124.3 207.6 150.6 242.7L144 249.4c-6.248 6.248-6.248 16.38 0 22.63l11.31 11.31c6.248 6.25 16.38 6.25 22.63 0l169.4-169.4C353.6 107.7 353.6 97.56 347.3 91.31z"/></svg>
